resources/svg/minor-type.svg

<svg xmlns="http://www.w3.org/2000/svg" viewBox="0 0 20 20" fill="currentColor"><path fill-rule="evenodd" d="M10.824 3.58071L14.7546 14.5863C14.8967 14.9843 15.2737 15.25 15.6963 15.25H16.125C16.6082 15.25 17 15.6418 17 16.125C17 16.6082 16.6082 17 16.125 17H11.75C11.2668 17 10.875 16.6082 10.875 16.125C10.875 15.6418 11.2668 15.25 11.75 15.25C11.9977 15.25 12.1707 15.0046 12.0874 14.7712L11.3209 12.625H6.92913L6.16261 14.7712C6.07929 15.0046 6.25225 15.25 6.5 15.25C6.98325 15.25 7.375 15.6418 7.375 16.125C7.375 16.6082 6.98325 17 6.5 17H3.875C3.39175 17 3 16.6082 3 16.125C3 15.6418 3.39175 15.25 3.875 15.25C4.02994 15.25 4.16816 15.1526 4.22027 15.0067L8.30098 3.58071C8.42535 3.23246 8.75521 3 9.125 3H10C10.3698 3 10.6997 3.23246 10.824 3.58071ZM7.55413 10.875L9.125 6.47656L10.6959 10.875H7.55413Z" fill="#5C5F62"/></svg>

<svg xmlns="http://www.w3.org/2000/svg" viewBox="0 0 20 20" fill="currentColor"><path fill-rule="evenodd" d="m10.824 3.58 3.93 11.006a1 1 0 0 0 .942.664h.429a.875.875 0 0 1 0 1.75h-4.375a.875.875 0 0 1 0-1.75c.248 0 .42-.245.337-.479l-.766-2.146h-4.392l-.766 2.146a.358.358 0 0 0 .337.479.875.875 0 0 1 0 1.75h-2.625a.875.875 0 0 1 0-1.75.367.367 0 0 0 .345-.243l4.081-11.426a.875.875 0 0 1 .824-.581h.875c.37 0 .7.232.824.58Zm-3.27 7.295 1.571-4.398 1.57 4.398h-3.14Z"/></svg>
